X: 15039
T: George White's Favourite
R: reel
M: 4/4
K: Gmajor
Bd|:eB ~B2 eBdB|~AGAB ~GE D2|GB ~B2 GB ~B2|(3ege dB A2 Bd|
eB ~B2 eBdB|~AGAB ~GE D2|~GABd gedB|~AGAB G2 Bd:|
|:~gede gaba|~gfga ~gedB|dega bgag|eaag a2 ga|
bgeg dged|~gede gaba|gfgd (3efg dB|1 AGAB G2 Bd:|2 AGAB G4||

